src/rounded/icons/fi-rr-bulb.svg

<svg id="Layer_1" height="512" viewBox="0 0 24 24" width="512" xmlns="http://www.w3.org/2000/svg" data-name="Layer 1"><path d="m17.994 2.286a9 9 0 0 0 -14.919 5.536 8.938 8.938 0 0 0 2.793 7.761 6.263 6.263 0 0 1 2.132 4.566v.161a3.694 3.694 0 0 0 3.69 3.69h.62a3.694 3.694 0 0 0 3.69-3.69v-.549a5.323 5.323 0 0 1 1.932-4 8.994 8.994 0 0 0 .062-13.477zm-5.684 19.714h-.62a1.692 1.692 0 0 1 -1.69-1.69s-.007-.26-.008-.31h4.008v.31a1.692 1.692 0 0 1 -1.69 1.69zm4.3-7.741a7.667 7.667 0 0 0 -2.364 3.741h-1.246v-7.184a3 3 0 0 0 2-2.816 1 1 0 0 0 -2 0 1 1 0 0 1 -2 0 1 1 0 0 0 -2 0 3 3 0 0 0 2 2.816v7.184h-1.322a8.634 8.634 0 0 0 -2.448-3.881 7 7 0 0 1 3.951-12.073 7.452 7.452 0 0 1 .828-.046 6.921 6.921 0 0 1 4.652 1.778 6.993 6.993 0 0 1 -.048 10.481z"/></svg>

<svg id="Layer_1" data-name="Layer 1" xmlns="http://www.w3.org/2000/svg" viewBox="0 0 24 24"><path d="M17.994,2.286A9,9,0,0,0,3.075,7.822a8.938,8.938,0,0,0,2.793,7.761A6.263,6.263,0,0,1,8,20.149v.161A3.694,3.694,0,0,0,11.69,24h.62A3.694,3.694,0,0,0,16,20.31v-.549a5.323,5.323,0,0,1,1.932-4,8.994,8.994,0,0,0,.062-13.477ZM12.31,22h-.62A1.692,1.692,0,0,1,10,20.31s-.007-.26-.008-.31H14v.31A1.692,1.692,0,0,1,12.31,22Zm4.3-7.741A7.667,7.667,0,0,0,14.246,18H13V10.816A3,3,0,0,0,15,8a1,1,0,0,0-2,0,1,1,0,0,1-2,0A1,1,0,0,0,9,8a3,3,0,0,0,2,2.816V18H9.678A8.634,8.634,0,0,0,7.23,14.119,7,7,0,0,1,11.181,2.046,7.452,7.452,0,0,1,12.009,2a6.921,6.921,0,0,1,4.652,1.778,6.993,6.993,0,0,1-.048,10.481Z"/></svg>
